src/assets/svg/foldout.svg

<svg xmlns="http://www.w3.org/2000/svg" fill="none" viewBox="0 0 30 30"><defs><clipPath id="a"><path fill="#fff" fill-opacity="0" d="M0 0h30v30H0z"/></clipPath></defs><path fill="none" d="M0 0h30v30H0z"/><g fill="currentColor" clip-path="url(#a)"><rect width="5.995" height="2.002" x="11.573" y="17.684" rx="1.001" transform="rotate(-42.841 11.573 17.684)"/><rect width="6.003" height="1.99" x="16.034" y="16.271" rx=".995" transform="rotate(-139.147 16.034 16.271)"/><path d="m20.09 25.48-10.2.02c-.42 0-.84-.05-1.25-.13s-.81-.2-1.2-.37c-.39-.16-.76-.36-1.11-.59s-.67-.5-.97-.8c-.29-.3-.56-.62-.79-.97s-.43-.72-.59-1.11a6.3 6.3 0 0 1-.49-2.46v-8.15a6.274 6.274 0 0 1 .49-2.46c.16-.39.36-.76.59-1.11s.5-.67.79-.97c.3-.3.62-.57.97-.8s.72-.43 1.11-.59c.39-.17.79-.29 1.2-.37s.83-.12 1.25-.12l10.2-.02c.42 0 .84.04 1.25.12.41.09.81.21 1.2.37q.585.24 1.11.6a6.1 6.1 0 0 1 1.76 1.76c.24.36.43.73.6 1.12q.24.585.36 1.2c.08.41.12.83.13 1.26v8.15c-.01.42-.05.83-.13 1.25q-.12.615-.36 1.2a6.6 6.6 0 0 1-.6 1.11c-.23.35-.49.68-.79.98-.3.29-.62.56-.97.79q-.525.36-1.11.6t-1.2.36c-.41.09-.83.13-1.25.13M9.89 6.59c-.28 0-.57.03-.84.08a4.5 4.5 0 0 0-1.56.65c-.23.16-.45.34-.65.54s-.38.42-.54.65c-.16.24-.29.49-.4.75s-.19.54-.24.81c-.06.28-.09.56-.09.85v8.15c0 .29.03.57.09.85.05.27.13.55.24.81s.24.51.4.75c.16.23.34.45.54.65s.42.38.65.54a4.5 4.5 0 0 0 1.56.65c.27.05.56.08.84.08l10.2-.01c.29 0 .57-.03.85-.09q.405-.075.81-.24c.26-.11.51-.25.74-.4q.36-.24.66-.54c.2-.21.37-.42.53-.66s.29-.48.4-.75c.11-.26.19-.53.25-.81.05-.28.08-.56.08-.84v-8.15c0-.29-.03-.57-.08-.85a4.5 4.5 0 0 0-.65-1.56c-.16-.24-.33-.46-.53-.66q-.3-.3-.66-.54c-.23-.15-.48-.29-.74-.4q-.405-.165-.81-.24c-.28-.06-.56-.09-.85-.09z"/><path fill-rule="evenodd" d="M8.49 5.5h2.04l.06 18.91H8.54z"/></g></svg>

<svg viewBox="0 0 30 30" fill="none" xmlns="http://www.w3.org/2000/svg" xmlns:xlink="http://www.w3.org/1999/xlink"><defs><clipPath id="clip1381_20236"><rect id="打开边栏0730" width="30.000000" height="30.000000" fill="white" fill-opacity="0"></rect></clipPath></defs><rect id="打开边栏0730" width="30.000000" height="30.000000" fill="#FFFFFF" fill-opacity="0"></rect><g clip-path="url(#clip1381_20236)"><rect id="rect" x="11.572754" y="17.683594" rx="1.000947" width="5.995172" height="2.001895" transform="rotate(-42.841 11.572754 17.683594)" fill="currentColor" fill-opacity="1.000000"></rect><rect id="rect" x="16.033691" y="16.271484" rx="0.995190" width="6.002943" height="1.990380" transform="rotate(-139.147 16.033691 16.271484)" fill="currentColor" fill-opacity="1.000000"></rect><path id="path" d="M20.09 25.48L9.89 25.5C9.47 25.5 9.05 25.45 8.64 25.37C8.23 25.29 7.83 25.17 7.44 25C7.05 24.84 6.68 24.64 6.33 24.41C5.98 24.18 5.66 23.91 5.36 23.61C5.07 23.31 4.8 22.99 4.57 22.64C4.34 22.29 4.14 21.92 3.98 21.53C3.82 21.14 3.69 20.74 3.61 20.32C3.53 19.91 3.49 19.49 3.49 19.07L3.49 10.92C3.49 10.5 3.53 10.08 3.61 9.67C3.69 9.25 3.82 8.85 3.98 8.46C4.14 8.07 4.34 7.7 4.57 7.35C4.8 7 5.07 6.68 5.36 6.38C5.66 6.08 5.98 5.81 6.33 5.58C6.68 5.35 7.05 5.15 7.44 4.99C7.83 4.82 8.23 4.7 8.64 4.62C9.05 4.54 9.47 4.5 9.89 4.5L20.09 4.48C20.51 4.48 20.93 4.52 21.34 4.6C21.75 4.69 22.15 4.81 22.54 4.97C22.93 5.13 23.3 5.33 23.65 5.57C24 5.8 24.32 6.06 24.62 6.36C24.92 6.66 25.18 6.98 25.41 7.33C25.65 7.69 25.84 8.06 26.01 8.45C26.17 8.84 26.29 9.24 26.37 9.65C26.45 10.06 26.49 10.48 26.5 10.91L26.5 19.06C26.49 19.48 26.45 19.89 26.37 20.31C26.29 20.72 26.17 21.12 26.01 21.51C25.84 21.9 25.65 22.27 25.41 22.62C25.18 22.97 24.92 23.3 24.62 23.6C24.32 23.89 24 24.16 23.65 24.39C23.3 24.63 22.93 24.83 22.54 24.99C22.15 25.15 21.75 25.27 21.34 25.35C20.93 25.44 20.51 25.48 20.09 25.48ZM9.89 6.59C9.61 6.59 9.32 6.62 9.05 6.67C8.77 6.73 8.5 6.81 8.24 6.92C7.98 7.03 7.73 7.16 7.49 7.32C7.26 7.48 7.04 7.66 6.84 7.86C6.64 8.06 6.46 8.28 6.3 8.51C6.14 8.75 6.01 9 5.9 9.26C5.79 9.52 5.71 9.8 5.66 10.07C5.6 10.35 5.57 10.63 5.57 10.92L5.57 19.07C5.57 19.36 5.6 19.64 5.66 19.92C5.71 20.19 5.79 20.47 5.9 20.73C6.01 20.99 6.14 21.24 6.3 21.48C6.46 21.71 6.64 21.93 6.84 22.13C7.04 22.33 7.26 22.51 7.49 22.67C7.73 22.83 7.98 22.96 8.24 23.07C8.5 23.18 8.77 23.26 9.05 23.32C9.32 23.37 9.61 23.4 9.89 23.4L20.09 23.39C20.38 23.39 20.66 23.36 20.94 23.3C21.21 23.25 21.48 23.17 21.75 23.06C22.01 22.95 22.26 22.81 22.49 22.66C22.73 22.5 22.95 22.32 23.15 22.12C23.35 21.91 23.52 21.7 23.68 21.46C23.84 21.22 23.97 20.98 24.08 20.71C24.19 20.45 24.27 20.18 24.33 19.9C24.38 19.62 24.41 19.34 24.41 19.06L24.41 10.91C24.41 10.62 24.38 10.34 24.33 10.06C24.27 9.78 24.19 9.51 24.08 9.25C23.97 8.98 23.84 8.74 23.68 8.5C23.52 8.26 23.35 8.04 23.15 7.84C22.95 7.64 22.73 7.46 22.49 7.3C22.26 7.15 22.01 7.01 21.75 6.9C21.48 6.79 21.21 6.71 20.94 6.66C20.66 6.6 20.38 6.57 20.09 6.57L9.89 6.59Z" fill="currentColor" fill-opacity="1.000000" fill-rule="nonzero"></path><path id="rect" d="M8.49 5.5L10.53 5.5L10.59 24.41L8.54 24.41L8.49 5.5Z" fill="currentColor" fill-opacity="1.000000" fill-rule="evenodd"></path></g></svg>
